X:235
T: Llewellyn a Favorite Welch Air
N: O'Farrell's Pocket Companion v.3 (Sky ed. p.114)
N: Version of "Ash Grove" / "Beauty in Tears"
M: 6/8
L: 1/8
R: waltz
Q: 180
K: G
D| GBd BGB| A/B/c/A/B/G/ AFD| G B/G/A/F/ GE[Cc]|DEF G2 :|
D| GBd gdB| A/B/c/d/e/f/ ecA| G/A/B/c/d/e/ dBG| Ad^c d-d/=c/B/A/|
B g/d/g/d/ BGG | A/B/c/A/B/G/ AFD| G/A/B/G/A/F/ GE[Cc]|
DEF G2 :|
